img/soc-icons/whatsapp.svg

<svg width="48" height="48" viewBox="0 0 48 48" fill="none" xmlns="http://www.w3.org/2000/svg">
<g clip-path="url(#clip0_5_78)">
<circle cx="24" cy="24" r="22" fill="#43D854"/>
<path d="M24.5319 11.5005C17.9271 11.5005 12.5556 16.8716 12.5531 23.4734C12.5521 25.7359 13.1852 27.9393 14.3837 29.8457L14.6685 30.2987L13.4589 34.7171L17.9908 33.5284L18.4279 33.7878C20.2664 34.8787 22.3737 35.456 24.5222 35.4569H24.5271C31.1269 35.4569 36.4982 30.0854 36.5008 23.483C36.5021 20.2836 35.2578 17.2752 32.9972 15.0119C30.7365 12.7488 27.73 11.5015 24.5319 11.5005ZM31.5749 28.6215C31.275 29.4623 29.8368 30.2297 29.1452 30.333C28.525 30.4258 27.7403 30.4644 26.878 30.1904C26.3552 30.0245 25.6848 29.803 24.8259 29.4322C21.215 27.8729 18.8566 24.2372 18.6767 23.9969C18.4968 23.7567 17.2069 22.0451 17.2069 20.2732C17.2069 18.5016 18.1369 17.6306 18.4668 17.2702C18.7966 16.91 19.1866 16.8198 19.4266 16.8198C19.6666 16.8198 19.9068 16.8221 20.1165 16.8325C20.3374 16.8437 20.6342 16.7486 20.9265 17.4504C21.2264 18.1713 21.9462 19.9431 22.0363 20.1233C22.1264 20.3034 22.1863 20.5136 22.0663 20.7539C21.9463 20.9939 21.8864 21.1442 21.7064 21.3543C21.5265 21.5646 21.3283 21.8236 21.1664 21.9849C20.9862 22.1645 20.7986 22.3593 21.0085 22.7195C21.2186 23.08 21.941 24.2587 23.0111 25.2132C24.386 26.4395 25.5459 26.8196 25.9058 26.9998C26.2657 27.1801 26.4758 27.1498 26.6857 26.9098C26.8957 26.6695 27.5856 25.8586 27.8256 25.4983C28.0655 25.1381 28.3055 25.1981 28.6354 25.3182C28.9653 25.4385 30.7351 26.3091 31.0951 26.4892C31.455 26.6694 31.695 26.7596 31.7849 26.9098C31.8749 27.0598 31.8749 27.7805 31.5749 28.6215Z" fill="white"/>
<path d="M24.0005 0C10.7458 0 0 10.7438 0 23.9985C0 37.2532 10.7458 47.999 24.0005 47.999C37.2542 47.999 48 37.2532 48 23.9985C48 10.7438 37.2542 0 24.0005 0ZM24.5272 37.8901C24.5267 37.8901 24.5275 37.8901 24.5272 37.8901H24.5212C22.1102 37.8892 19.7409 37.2842 17.6369 36.1366L9.99989 38.1399L12.0437 30.6747C10.783 28.49 10.1197 26.0118 10.1207 23.4726C10.1239 15.5297 16.5866 9.06746 24.5271 9.06746C28.3808 9.06902 31.998 10.5693 34.7178 13.2923C37.4377 16.0153 38.9349 19.6347 38.9334 23.4841C38.93 31.4271 32.4669 37.8901 24.5272 37.8901Z" fill="white"/>
</g>
<defs>
<clipPath id="clip0_5_78">
<rect width="48" height="48" fill="white"/>
</clipPath>
</defs>
</svg>

<svg width="48" height="48" fill="none" xmlns="http://www.w3.org/2000/svg">
    <g clip-path="url(#a)">
        <circle cx="24" cy="24" r="22" fill="#43D854"/>
        <path d="M24.532 11.5c-6.605 0-11.976 5.372-11.979 11.973a11.945 11.945 0 0 0 1.83 6.373l.286.453-1.21 4.418 4.532-1.189.437.26a11.957 11.957 0 0 0 6.094 1.669h.005c6.6 0 11.971-5.372 11.974-11.974a11.902 11.902 0 0 0-3.504-8.471 11.893 11.893 0 0 0-8.465-3.511Zm7.043 17.122c-.3.84-1.738 1.608-2.43 1.711-.62.093-1.405.131-2.267-.143a20.715 20.715 0 0 1-2.052-.758c-3.611-1.56-5.97-5.195-6.15-5.435-.18-.24-1.47-1.952-1.47-3.724 0-1.771.93-2.642 1.26-3.003.33-.36.72-.45.96-.45s.48.002.69.012c.221.012.518-.083.81.618.3.721 1.02 2.493 1.11 2.673.09.18.15.39.03.63s-.18.391-.36.601c-.18.21-.378.47-.54.63-.18.18-.367.375-.157.735.21.361.932 1.54 2.002 2.494 1.375 1.226 2.535 1.607 2.895 1.787.36.18.57.15.78-.09.21-.24.9-1.051 1.14-1.412.24-.36.48-.3.81-.18.33.12 2.1.991 2.46 1.171.359.18.599.27.689.42.09.15.09.872-.21 1.713Z" fill="#fff"/>
        <path d="M24 0C10.746 0 0 10.744 0 23.998 0 37.254 10.746 48 24 48s24-10.746 24-24C48 10.743 37.254 0 24 0Zm.527 37.89h-.006c-2.41 0-4.78-.606-6.884-1.753L10 38.14l2.044-7.465a14.38 14.38 0 0 1-1.923-7.202c.003-7.943 6.466-14.406 14.406-14.406a14.313 14.313 0 0 1 10.19 4.225 14.32 14.32 0 0 1 4.216 10.192c-.003 7.943-6.466 14.406-14.406 14.406Z" fill="#fff"/>
    </g>
    <defs>
        <clipPath id="a">
            <path fill="#fff" d="M0 0h48v48H0z"/>
        </clipPath>
    </defs>
</svg>
